src/images/icon/icon_btn_normal_docs.svg

<svg height="20" viewBox="0 0 20 20" width="20" xmlns="http://www.w3.org/2000/svg"><g fill="none" fill-rule="evenodd"><path d="m10 7.14285714h4.2857143v5.71428576l-2.1428572-2.1428572-2.1428571 2.1428572z" fill="#36435c"/><g stroke="#b6c2cd" stroke-width="1.5"><path d="m5 6.42857143h11.8571429c.5522847 0 1 .44771525 1 1v9.42857147c0 .5522847-.4477153 1-1 1h-11.71428576c-1.65685425 0-3-1.3431458-3-3v-5.57142861c0-1.57795643 1.27918643-2.85714286 2.85714286-2.85714286z"/><path d="m15.7142857 6.42857143h-11.42857141c-1.18346733 0-2.14285715-.95938982-2.14285715-2.14285714 0-1.18346733.95938982-2.14285715 2.14285715-2.14285715h13.57142861"/><path d="m2.142857 10v-5.714286"/></g></g></svg>

<?xml version="1.0" encoding="UTF-8"?>
<svg width="20px" height="20px" viewBox="0 0 20 20" version="1.1" xmlns="http://www.w3.org/2000/svg" xmlns:xlink="http://www.w3.org/1999/xlink">
    
    <g id="Dashboard" stroke="none" stroke-width="1" fill="none" fill-rule="evenodd">
        <g id="00-Menu-交互备份" transform="translate(-219.000000, -383.000000)">
            <g id="编组-8" transform="translate(219.000000, 383.000000)">
                <polygon id="矩形" fill="#36435C" points="10 7.14285714 14.2857143 7.14285714 14.2857143 12.8571429 12.1428571 10.7142857 10 12.8571429"></polygon>
                <path d="M5,6.42857143 L16.8571429,6.42857143 C17.4094276,6.42857143 17.8571429,6.87628668 17.8571429,7.42857143 L17.8571429,16.8571429 C17.8571429,17.4094276 17.4094276,17.8571429 16.8571429,17.8571429 L5.14285714,17.8571429 C3.48600289,17.8571429 2.14285714,16.5139971 2.14285714,14.8571429 L2.14285714,9.28571429 C2.14285714,7.70775786 3.42204357,6.42857143 5,6.42857143 Z" id="矩形" stroke="#B6C2CD" stroke-width="1.5"></path>
                <path d="M15.7142857,6.42857143 L4.28571429,6.42857143 C3.10224696,6.42857143 2.14285714,5.46918161 2.14285714,4.28571429 C2.14285714,3.10224696 3.10224696,2.14285714 4.28571429,2.14285714 L17.8571429,2.14285714" id="路径" stroke="#B6C2CD" stroke-width="1.5"></path>
                <line x1="2.14285714" y1="10" x2="2.14285714" y2="4.28571429" id="路径-6" stroke="#B6C2CD" stroke-width="1.5"></line>
            </g>
        </g>
    </g>
</svg>
